assets/img/braze_icons/headphones-01.svg

<svg fill="none" height="24" viewBox="0 0 24 24" width="24" xmlns="http://www.w3.org/2000/svg"><path clip-rule="evenodd" d="m2 12c0-5.52285 4.47715-10 10-10 5.5228 0 10 4.47715 10 10v6.5c0 1.933-1.567 3.5-3.5 3.5s-3.5-1.567-3.5-3.5v-2c0-1.933 1.567-3.5 3.5-3.5.5368 0 1.0454.1208 1.5.3368v-1.3368c0-4.41828-3.5817-8-8-8-4.41828 0-8 3.58172-8 8v1.3368c.45463-.216.9632-.3368 1.5-.3368 1.933 0 3.5 1.567 3.5 3.5v2c0 1.933-1.567 3.5-3.5 3.5s-3.5-1.567-3.5-3.5z" fill="#801ed7" fill-rule="evenodd"/></svg>

<svg width="24" height="24" viewBox="0 0 24 24" fill="none" xmlns="http://www.w3.org/2000/svg">
<path fill-rule="evenodd" clip-rule="evenodd" d="M2 12C2 6.47715 6.47715 2 12 2C17.5228 2 22 6.47715 22 12V18.5C22 20.433 20.433 22 18.5 22C16.567 22 15 20.433 15 18.5V16.5C15 14.567 16.567 13 18.5 13C19.0368 13 19.5454 13.1208 20 13.3368V12C20 7.58172 16.4183 4 12 4C7.58172 4 4 7.58172 4 12V13.3368C4.45463 13.1208 4.9632 13 5.5 13C7.433 13 9 14.567 9 16.5V18.5C9 20.433 7.433 22 5.5 22C3.567 22 2 20.433 2 18.5V12Z" fill="#801ED7"/>
</svg>
